projects/ccf-eui/src/assets/icons/organ-icons/organ-icon-lymph-nodes.svg

<svg width="64" height="64" viewBox="0 0 64 64" fill="currentColor" xmlns="http://www.w3.org/2000/svg">
<g clip-path="url(#clip0_1795_301)">
<path d="M50.7308 31.2533C50.9228 30.784 46.3148 28.3733 44.2028 29.5253C42.0908 30.6773 39.3814 32 37.9308 32.6187L38.5281 30.4853C39.132 30.282 39.6597 29.8995 40.0408 29.3888C40.4219 28.8781 40.6384 28.2635 40.6614 27.6267C40.8961 25.9627 40.2348 24.4907 39.1468 24.2133L39.0188 21.7813C39.8651 20.8901 40.8437 20.1346 41.9201 19.5413C42.9014 18.9867 44.3094 18.7093 45.4401 18.176C46.4274 17.6166 47.2891 16.8601 47.9717 15.9537C48.6543 15.0472 49.1432 14.01 49.4081 12.9067C49.0668 12.8 47.6801 16.192 44.9921 17.3653C43.8614 17.8773 42.4321 18.1333 41.4508 18.688C40.5327 19.2003 39.6863 19.8315 38.9334 20.5653V19.4773C39.4407 19.2079 39.8712 18.814 40.1847 18.3326C40.4981 17.8513 40.6842 17.2982 40.7254 16.7253C40.8004 16.259 40.8004 15.7837 40.7254 15.3173C40.9643 13.6814 41.3136 12.0635 41.7708 10.4747C42.5294 8.66716 43.129 6.79697 43.5628 4.88532C42.2446 6.40145 41.3019 8.20658 40.8108 10.1547C40.4393 11.3124 40.154 12.4961 39.9574 13.696C39.721 13.4574 39.4146 13.3005 39.0828 13.248C38.6925 13.2152 38.3024 13.3127 37.9734 13.5253C37.8028 10.6667 37.2694 3.56265 36.7361 3.56265C36.2028 3.56265 36.6294 9.21599 36.8641 12.5013C35.3494 9.62132 32.5974 4.58665 32.1921 4.77865C31.7868 4.97065 36.2668 13.568 36.8428 14.784C36.6321 15.2056 36.495 15.6602 36.4374 16.128C36.3115 16.7061 36.3419 17.3074 36.5257 17.8699C36.7094 18.4324 37.0398 18.9357 37.4828 19.328L37.8028 24.5547C37.6718 24.6572 37.5504 24.7715 37.4401 24.896C36.4588 23.2747 34.3468 19.6693 32.5334 15.9573C31.1254 13.12 24.7254 10.6667 24.5974 11.136C24.4694 11.6053 30.4854 13.6747 31.7441 16.5333C31.9788 17.0667 32.2134 17.6 32.4694 18.1333C31.4476 17.5161 30.36 17.0152 29.2268 16.64C27.263 15.9239 25.1576 15.6827 23.0828 15.936C22.9548 16.256 26.2188 16.64 28.9281 17.6C30.4874 18.1695 31.9706 18.929 33.3441 19.8613C34.7948 22.6773 36.2241 24.9387 36.8001 25.8347C36.6191 26.2345 36.4969 26.6585 36.4374 27.0933C36.3459 27.5931 36.3573 28.1063 36.471 28.6015C36.5847 29.0968 36.7983 29.5635 37.0988 29.9733L35.9681 33.8987C35.5907 34.0163 35.241 34.2093 34.9404 34.466C34.6397 34.7227 34.3942 35.0377 34.2188 35.392L31.6161 34.1333C31.6161 33.088 30.5708 31.6587 28.7788 30.656C27.7131 30.0151 26.479 29.7103 25.2374 29.7813C24.7439 27.7388 23.976 25.7725 22.9548 23.936C22.1308 22.4119 20.8039 21.2207 19.2001 20.5653C18.9228 20.6933 20.8001 22.0587 22.0374 24.2773C22.4628 25.0467 22.8335 25.8452 23.1468 26.6667C22.9493 26.4446 22.7354 26.2378 22.5068 26.048C21.0938 24.8667 19.3658 24.1251 17.5361 23.9147C17.2161 24.064 19.9681 25.0027 21.8028 26.688C22.8369 27.6973 23.6252 28.9309 24.1068 30.2933L24.0001 30.4213C23.9001 30.6274 23.8481 30.8535 23.8481 31.0827C23.8481 31.3118 23.9001 31.5379 24.0001 31.744C22.5221 31.9381 21.0319 32.0236 19.5414 32C15.9574 32 12.1601 31.168 12.1174 31.5093C14.4509 32.5296 16.9734 33.0458 19.5201 33.024C21.2409 33.0767 22.9627 32.9624 24.6614 32.6827C25.2551 33.3789 25.98 33.9516 26.7948 34.368C27.1909 34.5814 27.6049 34.7598 28.0321 34.9013L24.2561 37.9733H24.0214H23.7014C22.669 37.5467 21.5866 37.2528 20.4801 37.0987C18.8955 36.8002 17.2599 36.9328 15.7441 37.4827C15.7441 37.8453 18.1761 37.7813 20.3948 38.1227C21.0588 38.225 21.7147 38.3748 22.3574 38.5707C22.2771 38.6236 22.2052 38.6883 22.1441 38.7627C21.1818 39.0923 20.1982 39.356 19.2001 39.552C16.6828 39.9573 13.8241 39.9787 13.9094 40.3413C15.6573 40.849 17.5028 40.9223 19.2854 40.5547C20.3392 40.4115 21.3757 40.1613 22.3788 39.808C22.9347 40.0786 23.5571 40.1823 24.1708 40.1067C25.3441 39.9787 26.3041 39.3813 26.1761 38.8053C26.0481 38.2293 25.8774 38.2933 25.4934 38.144L29.0134 35.2C29.5269 35.3082 30.0573 35.3082 30.5708 35.2L33.7068 36.7573C33.5958 37.2042 33.5763 37.669 33.6497 38.1236C33.723 38.5782 33.8875 39.0133 34.1334 39.4027L32.3628 43.1787C31.7721 43.2148 31.2018 43.4079 30.7105 43.7379C30.2193 44.0679 29.8249 44.5229 29.5681 45.056C29.2692 45.5151 29.0809 46.0372 29.018 46.5813C28.9551 47.1255 29.0192 47.6768 29.2054 48.192L28.2881 49.4507H22.3361C21.8866 49.0624 21.3274 48.8238 20.7361 48.768H20.3308C19.2759 48.4112 18.1783 48.196 17.0668 48.128C15.4448 47.9867 13.8163 48.3124 12.3734 49.0667C12.3734 49.408 14.8054 49.0667 17.0454 49.2373L18.4961 49.408C18.4961 49.408 18.4961 49.408 18.4961 49.5573C18.4672 49.6693 18.4672 49.7867 18.4961 49.8987C17.8237 50.0881 17.1674 50.3307 16.5334 50.624C14.8335 51.2839 13.3185 52.3452 12.1174 53.7173C12.2454 54.0587 14.6774 52.544 17.0241 51.584C17.8201 51.2405 18.6401 50.9553 19.4774 50.7307C19.7747 50.844 20.0818 50.9296 20.3948 50.9867C21.0202 51.0991 21.6652 51.0016 22.2294 50.7093L27.3281 50.8587L26.3254 52.2027C25.2801 51.9893 24.0214 52.9067 23.4028 54.336C23.2073 54.818 23.099 55.3308 23.0828 55.8507C22.6529 56.0451 22.2392 56.2734 21.8454 56.5333C19.9894 57.6 18.2828 59.456 18.4321 59.7333C18.5814 60.0107 20.5654 58.4107 22.4001 57.2373L23.2108 56.7893C23.2651 57.0415 23.3758 57.2781 23.5347 57.4813C23.6936 57.6846 23.8965 57.8491 24.1281 57.9627C24.2829 57.9949 24.4426 57.9949 24.5974 57.9627C24.6002 58.0124 24.6002 58.0622 24.5974 58.112C24.2774 59.456 23.5094 60.864 23.8721 60.9067C24.2348 60.9493 25.1734 59.7333 25.6001 58.4533C25.6205 58.2476 25.6205 58.0404 25.6001 57.8347C26.3574 57.3834 26.9428 56.6929 27.2641 55.872C27.6275 55.0767 27.7102 54.1817 27.4988 53.3333L30.5708 49.0667H30.9548C31.6594 50.9152 32.0976 52.8547 32.2561 54.8267C32.2561 56.6187 32.4054 57.984 32.6401 58.0053C32.8748 58.0267 33.0454 56.5973 33.1521 54.7413C33.1032 52.651 32.6617 50.5885 31.8508 48.6613C32.4122 48.2968 32.8741 47.7983 33.1948 47.2107C33.5032 46.7558 33.6973 46.2331 33.7604 45.6871C33.8236 45.1411 33.7539 44.588 33.5574 44.0747L34.4961 42.0907L36.3948 44.6507C36.4013 44.9912 36.4854 45.3257 36.6407 45.6288C36.7959 45.932 37.0183 46.1957 37.2908 46.4C37.412 47.7484 37.9402 49.028 38.8054 50.0693C40.2598 51.6423 42.1824 52.7046 44.2881 53.0987C44.5868 52.8853 41.2801 51.4347 39.5094 49.3227C38.9854 48.6932 38.5871 47.969 38.3361 47.1893C38.9334 47.4453 39.4668 47.488 39.7228 47.1893C39.7993 47.0832 39.8437 46.9573 39.8508 46.8267C40.4268 47.104 41.0668 47.424 41.7068 47.808C43.8401 49.1307 46.1014 50.9653 46.2721 50.6453C46.4428 50.3253 44.4374 48.3413 42.3254 46.976C41.3659 46.388 40.3513 45.895 39.2961 45.504C39.1494 45.318 38.985 45.1465 38.8054 44.992C38.3644 44.5889 37.8161 44.3222 37.2268 44.224L34.9441 41.216L35.4348 40.1493C36.0363 40.0168 36.5864 39.7124 37.0182 39.2731C37.4499 38.8337 37.7448 38.2784 37.8668 37.6747C38.0766 37.1387 38.1475 36.5585 38.0729 35.9878C37.9983 35.4172 37.7806 34.8746 37.4401 34.4107L37.5681 33.9413C39.0242 33.3633 40.4484 32.7082 41.8348 31.9787C43.0376 32.2063 44.1922 32.6393 45.2481 33.2587C47.1468 34.3467 49.0668 36.2667 49.1521 35.9467C48.281 34.4616 47.048 33.2213 45.5681 32.3413C44.8041 31.873 43.9783 31.514 43.1148 31.2747C43.4988 31.04 43.8828 30.8267 44.2668 30.5707C46.4001 29.2053 50.4748 31.872 50.7308 31.2533Z" />
</g>
<defs>
<clipPath id="clip0_1795_301">
<rect width="64" height="64" />
</clipPath>
</defs>
</svg>

<svg xmlns="http://www.w3.org/2000/svg" width="64" height="64" fill="currentColor" viewBox="0 0 64 64"><g clip-path="url(#a)"><path d="M50.73 31.253c.193-.469-4.415-2.88-6.527-1.728S39.38 32 37.93 32.62l.597-2.134a3.14 3.14 0 0 0 2.133-2.858c.235-1.664-.426-3.136-1.514-3.414l-.128-2.432a12 12 0 0 1 2.901-2.24c.981-.554 2.39-.832 3.52-1.365a8.28 8.28 0 0 0 3.968-5.27c-.341-.106-1.728 3.286-4.416 4.46-1.13.511-2.56.767-3.541 1.322a12 12 0 0 0-2.518 1.877v-1.088a3.39 3.39 0 0 0 1.792-2.752 4.4 4.4 0 0 0 0-1.408 37 37 0 0 1 1.046-4.842 33.7 33.7 0 0 0 1.792-5.59 12.8 12.8 0 0 0-2.752 5.27 24.6 24.6 0 0 0-.854 3.541 1.58 1.58 0 0 0-.874-.448 1.77 1.77 0 0 0-1.11.277c-.17-2.858-.704-9.962-1.237-9.962s-.107 5.653.128 8.938c-1.515-2.88-4.267-7.914-4.672-7.722s4.075 8.789 4.65 10.005c-.21.422-.347.876-.405 1.344a3.33 3.33 0 0 0 1.046 3.2l.32 5.227a3 3 0 0 0-.363.341c-.981-1.621-3.093-5.227-4.907-8.939-1.408-2.837-7.808-5.29-7.936-4.821s5.888 2.539 7.147 5.397c.235.534.47 1.067.725 1.6a16 16 0 0 0-3.242-1.493 13.25 13.25 0 0 0-6.144-.704c-.128.32 3.136.704 5.845 1.664 1.56.57 3.043 1.329 4.416 2.261a74 74 0 0 0 3.456 5.974c-.18.4-.303.823-.363 1.258a3.73 3.73 0 0 0 .662 2.88l-1.13 3.926a2.92 2.92 0 0 0-1.75 1.493l-2.603-1.259c0-1.045-1.045-2.474-2.837-3.477a6.2 6.2 0 0 0-3.542-.875 23.3 23.3 0 0 0-2.282-5.845 7.5 7.5 0 0 0-3.755-3.37c-.277.127 1.6 1.493 2.837 3.711q.64 1.156 1.11 2.39a6 6 0 0 0-.64-.619 9.43 9.43 0 0 0-4.97-2.133c-.32.149 2.431 1.088 4.266 2.773a9.4 9.4 0 0 1 2.304 3.605l-.107.128a1.52 1.52 0 0 0 0 1.323 30.5 30.5 0 0 1-4.459.256c-3.584 0-7.38-.832-7.424-.49a18.1 18.1 0 0 0 7.403 1.514c1.72.053 3.443-.062 5.141-.341a7 7 0 0 0 2.134 1.685q.595.32 1.237.533l-3.776 3.072h-.555a13.2 13.2 0 0 0-3.22-.874 9 9 0 0 0-4.737.384c0 .362 2.432.298 4.65.64q.998.154 1.963.448a1 1 0 0 0-.213.192c-.962.33-1.946.593-2.944.789-2.517.405-5.376.427-5.29.79a11.2 11.2 0 0 0 5.375.213 15.7 15.7 0 0 0 3.094-.747 3.2 3.2 0 0 0 1.792.299c1.173-.128 2.133-.726 2.005-1.302s-.299-.512-.683-.661l3.52-2.944a3.8 3.8 0 0 0 1.558 0l3.136 1.557a3.41 3.41 0 0 0 .426 2.646l-1.77 3.776a3.33 3.33 0 0 0-2.795 1.877 3.54 3.54 0 0 0-.363 3.136l-.917 1.259h-5.952a2.86 2.86 0 0 0-1.6-.683h-.405a12.6 12.6 0 0 0-3.264-.64 8.53 8.53 0 0 0-4.694.939c0 .341 2.432 0 4.672.17l1.451.171v.15a.7.7 0 0 0 0 .34q-1.01.286-1.963.726c-1.7.66-3.215 1.721-4.416 3.093.128.342 2.56-1.173 4.907-2.133a18 18 0 0 1 2.453-.853q.448.17.918.256a2.88 2.88 0 0 0 1.834-.278l5.1.15-1.004 1.344c-1.045-.214-2.304.704-2.922 2.133a4.4 4.4 0 0 0-.32 1.515q-.646.291-1.238.682c-1.856 1.067-3.562 2.923-3.413 3.2s2.133-1.322 3.968-2.496l.81-.448a1.7 1.7 0 0 0 .918 1.174c.155.032.315.032.47 0q.003.075 0 .149c-.32 1.344-1.089 2.752-.726 2.795.363.042 1.301-1.174 1.728-2.454q.03-.309 0-.618a3.97 3.97 0 0 0 1.664-1.963c.364-.795.446-1.69.235-2.539l3.072-4.266h.384a20.9 20.9 0 0 1 1.301 5.76c0 1.792.15 3.157.384 3.178.235.022.405-1.408.512-3.264a16.7 16.7 0 0 0-1.301-6.08 4.03 4.03 0 0 0 1.344-1.45 3.41 3.41 0 0 0 .362-3.136l.94-1.984 1.898 2.56a2.24 2.24 0 0 0 .896 1.749 6.68 6.68 0 0 0 1.514 3.67 9.96 9.96 0 0 0 5.483 3.029c.299-.214-3.008-1.664-4.779-3.776a6.4 6.4 0 0 1-1.173-2.134c.597.256 1.13.299 1.387 0a.7.7 0 0 0 .128-.362c.576.277 1.216.597 1.856.981 2.133 1.323 4.394 3.157 4.565 2.837.17-.32-1.835-2.304-3.947-3.669a17.3 17.3 0 0 0-3.029-1.472 3.7 3.7 0 0 0-.49-.512 3.1 3.1 0 0 0-1.58-.768l-2.282-3.008.49-1.067a3.18 3.18 0 0 0 2.433-2.474 3.41 3.41 0 0 0-.427-3.264l.128-.47a44 44 0 0 0 4.267-1.962c1.203.227 2.357.66 3.413 1.28 1.899 1.088 3.819 3.008 3.904 2.688a10.2 10.2 0 0 0-3.584-3.606 9.6 9.6 0 0 0-2.453-1.066c.384-.235.768-.448 1.152-.704 2.133-1.366 6.208 1.301 6.464.682"/></g><defs><clipPath id="a"><path d="M0 0h64v64H0z"/></clipPath></defs></svg>
